incomeartour/img/icons/instagram.svg

<svg width="26" height="26" viewBox="0 0 26 26" fill="none" xmlns="http://www.w3.org/2000/svg">
<path d="M13 2.75098C16.3398 2.75098 16.7354 2.76562 18.0488 2.82422C19.2695 2.87793 19.9287 3.08301 20.3682 3.25391C20.9492 3.47852 21.3691 3.75195 21.8037 4.18652C22.2432 4.62598 22.5117 5.04102 22.7363 5.62207C22.9072 6.06152 23.1123 6.72559 23.166 7.94141C23.2246 9.25977 23.2393 9.65527 23.2393 12.9902C23.2393 16.3301 23.2246 16.7256 23.166 18.0391C23.1123 19.2598 22.9072 19.9189 22.7363 20.3584C22.5117 20.9395 22.2383 21.3594 21.8037 21.7939C21.3643 22.2334 20.9492 22.502 20.3682 22.7266C19.9287 22.8975 19.2646 23.1025 18.0488 23.1563C16.7305 23.2148 16.335 23.2295 13 23.2295C9.66016 23.2295 9.26465 23.2148 7.95117 23.1563C6.73047 23.1025 6.07129 22.8975 5.63184 22.7266C5.05078 22.502 4.63086 22.2285 4.19629 21.7939C3.75684 21.3545 3.48828 20.9395 3.26367 20.3584C3.09277 19.9189 2.8877 19.2549 2.83398 18.0391C2.77539 16.7207 2.76074 16.3252 2.76074 12.9902C2.76074 9.65039 2.77539 9.25488 2.83398 7.94141C2.8877 6.7207 3.09277 6.06152 3.26367 5.62207C3.48828 5.04102 3.76172 4.62109 4.19629 4.18652C4.63574 3.74707 5.05078 3.47852 5.63184 3.25391C6.07129 3.08301 6.73535 2.87793 7.95117 2.82422C9.26465 2.76562 9.66016 2.75098 13 2.75098ZM13 0.5C9.60645 0.5 9.18164 0.514648 7.84863 0.573242C6.52051 0.631836 5.60742 0.84668 4.81641 1.1543C3.99121 1.47656 3.29297 1.90137 2.59961 2.59961C1.90137 3.29297 1.47656 3.99121 1.1543 4.81152C0.84668 5.60742 0.631836 6.51562 0.573242 7.84375C0.514648 9.18164 0.5 9.60645 0.5 13C0.5 16.3936 0.514648 16.8184 0.573242 18.1514C0.631836 19.4795 0.84668 20.3926 1.1543 21.1836C1.47656 22.0088 1.90137 22.707 2.59961 23.4004C3.29297 24.0938 3.99121 24.5234 4.81152 24.8408C5.60742 25.1484 6.51562 25.3633 7.84375 25.4219C9.17676 25.4805 9.60156 25.4951 12.9951 25.4951C16.3887 25.4951 16.8135 25.4805 18.1465 25.4219C19.4746 25.3633 20.3877 25.1484 21.1787 24.8408C21.999 24.5234 22.6973 24.0938 23.3906 23.4004C24.084 22.707 24.5137 22.0088 24.8311 21.1885C25.1387 20.3926 25.3535 19.4844 25.4121 18.1563C25.4707 16.8232 25.4854 16.3984 25.4854 13.0049C25.4854 9.61133 25.4707 9.18652 25.4121 7.85352C25.3535 6.52539 25.1387 5.61231 24.8311 4.82129C24.5234 3.99121 24.0986 3.29297 23.4004 2.59961C22.707 1.90625 22.0088 1.47656 21.1885 1.15918C20.3926 0.851562 19.4844 0.636719 18.1562 0.578125C16.8184 0.514648 16.3936 0.5 13 0.5Z" fill="#272727"/>
<path d="M13 6.5791C9.45508 6.5791 6.5791 9.45508 6.5791 13C6.5791 16.5449 9.45508 19.4209 13 19.4209C16.5449 19.4209 19.4209 16.5449 19.4209 13C19.4209 9.45508 16.5449 6.5791 13 6.5791ZM13 17.165C10.7002 17.165 8.83496 15.2998 8.83496 13C8.83496 10.7002 10.7002 8.83496 13 8.83496C15.2998 8.83496 17.165 10.7002 17.165 13C17.165 15.2998 15.2998 17.165 13 17.165Z" fill="#272727"/>
<path d="M21.1738 6.32515C21.1738 7.15523 20.5 7.82418 19.6748 7.82418C18.8447 7.82418 18.1758 7.15035 18.1758 6.32515C18.1758 5.49507 18.8496 4.82613 19.6748 4.82613C20.5 4.82613 21.1738 5.49996 21.1738 6.32515Z" fill="#272727"/>
</svg>

<svg width="26" height="26" fill="none" xmlns="http://www.w3.org/2000/svg"><path d="M13 2.751c3.34 0 3.735.015 5.049.073 1.22.054 1.88.259 2.32.43.58.225 1 .498 1.435.933.44.439.708.854.932 1.435.171.44.376 1.104.43 2.32.059 1.318.073 1.713.073 5.048 0 3.34-.014 3.736-.073 5.05-.054 1.22-.259 1.879-.43 2.318a3.864 3.864 0 01-.932 1.436 3.85 3.85 0 01-1.436.933c-.44.17-1.103.375-2.32.43-1.317.058-1.713.073-5.048.073-3.34 0-3.735-.015-5.049-.074-1.22-.053-1.88-.258-2.32-.43a3.865 3.865 0 01-1.435-.932 3.844 3.844 0 01-.932-1.436c-.171-.44-.376-1.103-.43-2.319-.059-1.318-.073-1.714-.073-5.049 0-3.34.014-3.735.073-5.049.054-1.22.259-1.88.43-2.319a3.866 3.866 0 01.932-1.435 3.85 3.85 0 011.436-.933c.44-.171 1.103-.376 2.32-.43C9.264 2.766 9.66 2.751 13 2.751zM13 .5C9.606.5 9.182.515 7.849.573c-1.328.059-2.242.274-3.033.581A6.1 6.1 0 002.6 2.6a6.125 6.125 0 00-1.446 2.212c-.307.795-.522 1.704-.58 3.032C.513 9.182.5 9.606.5 13c0 3.394.015 3.818.073 5.151.059 1.329.274 2.242.581 3.033A6.101 6.101 0 002.6 23.4a6.11 6.11 0 002.212 1.44c.795.308 1.704.523 3.032.582 1.333.058 1.758.073 5.151.073 3.394 0 3.819-.015 5.152-.073 1.328-.059 2.24-.274 3.032-.581a6.11 6.11 0 002.212-1.44 6.11 6.11 0 001.44-2.212c.308-.796.523-1.705.581-3.033.059-1.333.073-1.758.073-5.151 0-3.394-.014-3.818-.073-5.151-.058-1.329-.273-2.242-.58-3.033A5.856 5.856 0 0023.4 2.6a6.11 6.11 0 00-2.211-1.44c-.796-.308-1.705-.523-3.033-.582C16.818.515 16.394.5 13 .5z" fill="#272727"/><path d="M13 6.58A6.422 6.422 0 006.58 13 6.423 6.423 0 0013 19.42 6.423 6.423 0 0019.42 13 6.423 6.423 0 0013 6.58zm0 10.585a4.166 4.166 0 11.001-8.331A4.166 4.166 0 0113 17.165zm8.174-10.84a1.5 1.5 0 11-2.999 0 1.5 1.5 0 012.999 0z" fill="#272727"/></svg>
